X:1
T:Jan Pieterszoon Sweelinck 1562 - 1621
T:Pseaume 24
%%score [ 1 2 3 4 ]
L:1/8
M:none
K:F
V:1 treble nm="Cantus" snm="Cantus"
V:2 treble nm="Altus" snm="Altus"
V:3 treble-8 nm="Tenor" snm="Tenor"
V:4 bass nm="Bassus" snm="Bassus"
V:1
"^Première partie à 4" G8 d8 | B8 c8 x2 | c4 B4 A8 | G8 z8 | G8 B4 c4 | d4 f4 e4 e4 | d8 z8 | %7
w: La ter-|re~au Sei-|gneur ap- par-|tient,|Tout ce qu'en|sa ron- deur con-|tient,|
 d8 _e4 d4 | c4 B4 A4 G4 x2 | A8 G8 | z8 B8 x | B4 B4 c8 x | B4 A4 G8 | F8 z8 x2 | G8 d4 d4 | %15
w: Et ceux qui|ha- bi- tent en|el- le:|Sur|mer fon- de-|ment lui don-|na,|L'en- ri- chit|
 B4 d4 c8 x2 | B8 A8 | z8 d8 | c4 B4 A4 G4 | B4 c4 A8 | G8 z2 G2 G2 G2 x4 | g4 d2 d2 d2 d2 f6 | %22
w: et l'en- vi-|ron- na|De|main- te ri- vie-|re tres bel-|le. Mais sa mon-|ta- gne, Mais sa mon- ta-|
 d4 c2 =B2 c3 !courtesy!=B/A/ !courtesy!=B2 x2 | c2 B2 A4 A4 z2 A3 | G A2 F2 f3 e f2 d2 g2 g2 | %25
w: gne~est un sainct lieu, * * *|est un sainct lieu, Qui|vien- dra donc, Qui vien- dra donc au mont|
 ^f2 g2 d3 c d2 B2 G2 x2 | c6 A2 d2 d2 gfed x | cA d4 ^c2 d2 A2 B4 x3 | A2 d2 f4 d2 d2 d2 c2 | %29
w: de Dieu? Qui vien- dra donc au|mont de Dieu? au mont * * *|* * * de Dieu? Qui est-|ce, Qui est- ce qui là tien-|
 B4 A2 GF G2 A2 B2 G4 | G2 A2 G2 ^F2 G4 !courtesy!^F2 G3 | A B4 z2 A4 Bc x3 | d2 d2 d2 c2 B4 B6 | %33
w: dra pla- * * * * * ce?|qui là tien- dra pla- * ce?|* * L'hom- me de|mains et cur la- vé, L'hom-|
 FG A2 A2 A2 GF G2 F2 A4 | z2 c2 f2 f2 f2 e2 x4 | A4 z2 d2 cdec f2 c2 | d4 c6 G2 B2 d2 | %37
w: me de mains et cur, et * cur la- vé,|de mains et cur la-|vé, En va * * * * ni-|té non es- le- vé,|
 d2 A4 =B2 c3"^(  )" _B/A/ G4 | c2 B2 A2 G2 F4 f6 | e4 d4 c2 A4 A2 | f2 d4 G4 c4 B2 | %41
w: non es- le- vé, * * *|Et qui n'a ju- ré, Et|qui n'a ju- ré en|fal- la- ce, en fal|
 AG F2 A3 G G4 ^F2"^-" x16 |]"^Seconde partie à 3" z4 G2 d2 B4 c2 c2 | B2 A2 G4 G3 A B2 c2 | %44
w: * * * la- * * *|L'hom- me tel Dieu le|be- ni- ra: Dieu * * le|
 c2 =B2 c4 c2 c2"^(  )" _B2 A2 | G4 G2 g2 e4 f2 f2 | e2 d2 c3 B A4 A3 B | %47
w: be- ni- ra: Dieu le be- ni-|ra: L'hom- me tel Dieu le|be- ni- ra: * * Dieu *|
 c2 d2 d2 ^c2 d4"^(  )" =c2 c2 | B4 A4 G4 z4 x2 | G4 B2 c2 d4 f4 | e2 e2 d6 cB A4 | %51
w: * le be- ni- ra: Dieu le|be- ni- ra:|Dieu son Sau- veur le|mu- ni- ra, * * *|
 z8 z2 D2 F2 G2 | A2 f2 e2 e2 d4 d6 | _e2 d2 c2 B4 A2 G2 A4 | G2 D2 ^F2 G4 !courtesy!^F2 x6 | %55
w: Dieu son Sau-|veur le mu- ni- ra, De|mi- se- ri- cor- de~et cle- men-|ce, et cle- men- *|
 G2 d4 d2 B2 A2 G2 A2 | =B2 c4 !courtesy!=B2 c4 c2 d2 | c2 B2 A2 B2 c2 d4 ^c2 | d4 d2 f2 d2 c2 B4 | %59
w: ce, De mi- se- ri- cor- de~et|cle- men- * ce, De mi-|se- ri- cor- de~et cle- men- *|ce, De mi- se- ri- cor-|
 A2 G2 A4 G4 z4 | z2 c2 c2 c2 d3 c B3 A | G2 e2 e2 e2 f3 e d3 c | B2 B2 B2 B2 c3 B A3 G | %63
w: de~et cle- men- ce|Tel- le~est la ge- ne- ra- ti-|on, Tel- le~est la ge- ne- ra- ti-|on, Tel- le~est la ge- ne- ra- ti-|
 ^F4 z2 A2 d2 d2 B2 d2 | c2 B2 A4 F2 f2 f2 d4 | d2 c2 B2 A2 B4 A4 x2 | G2 A4 d4 c2 B2 x2 | %67
w: on, Cher- chant, cher- chant d'af-|fec- ti- on, Cher- chant, cher- chant|d'af- fec- ti- on, d'af- fec-|ti- on, O Dieu de|
 A4 G4 B2 c2 A4 | G4 z2 g4 f2 e2 d4 | c2 f4 e2 d4 c2 A2 x2 | B2 A2 d4 ^c2 d4 x2 | d6 c2 B2 A4 G2 | %72
w: Ja- cob, ta pre- sen-|ce, O Dieu de Ja-|cob, O Dieu de Ja- cob,|ta pre- sen- * ce,|O Dieu de Ja- cob,|
 c3 A Bcd_e d2 c2 c8 | =B2 A2"^-" x8 x8 |]"^Tierce partie à 4" z16 | z16 x2 | G8 c4 c2 c4 | %77
w: ta * * * * * * pre- sen-||||Haus- sez vos tes-|
 B2 d6 cB A2 A2 x4 | B4 d2 B4 A2 G2 c2 | A2 A2 a2 d4 d2 ^c4 | d8 z2 d2 f3 e | d2 B4 d4 c4 B4 | %82
w: tes grands * * * por-|taux, Huis e- ter- nels te-|nez- vous hauts, te- nez- vous|hauts Si en- tre-|ra, si en- tre- ra,|
 A4 G4 ^F2 G6 | ^FE !courtesy!^F4 G2 B2 B2 B2 x2 | c2 A2 ABcA Bcde f3 e | d2 d2 f4 z2 c2 c2 c2 | %86
w: le Roy de gloi-|* * * re, Qui- est ce|Roy tant glo * * * * * * * * *|* ri- eux? Qui- est ce|
 d4 c4 B6 AG | AGFG AB c3 B B4 A2 | B6 AG A4 z2 f2 | d2 f4 ed e4 e2 e2 | d6 d2 ^c8 | %91
w: Roy tant glo * *|* * * * * * * * * ri-|eux? * * * C'est|le fort * * * Dieu vic-|to- ri- eux,|
 z4 d2 e2 f2 g2 a2 gf | e4 d4 z4 d2 c2 | B2 A2 G2 AB c8 | =B8 z8 | z8 z2 A2 d2 A2 | %96
w: Le plus fort qu'en guer- re~on peut|croi- re, Le plus|fort qu'en guer- re~on peut croi-|re|Haus- sez vos|
 B4 G2 B4 A2 G4 | z4 G2 d4 A2 c6 x2 | c2 B4 A8 x2 | D2 d2 B3 c d2 f2 f2 e2 | %100
w: tes- tes grands por- taux,|Haus- sez vos tes-|tes grands por-|taux, Huis e- ter- nels, te- nez- vous,|
 a2 d2 cA d4 ^c=B !courtesy!^c2 c2 | d4 z2 d2 _e3 d"^(  )" c2 B2 x2 | A2 G2 A4 G8 | %103
w: te- nez * * * * * * vous,|hauts, Si en- tre- ra le|Roy de gloi- re,|
 z4 z2 B2 d3 c B2 c2 x | d2 A2 d4 =B8 x3 | z8 z4 z2 d2 | d4 G2 B4 A2 AGFE | DEFG A=Bcd efgf e2 e2 | %108
w: Si en- te- ra le|Roy de gloi- re,|Qui|est ce Roy tant glo * * *|* * * * * * * * * * * * * ri-|
 f4 z2 f2 f2 ed e2 ^f2 | g4 z2 G2 B2 B3 B A2 | dcde f2 f2 e4 z2 f2 | d2 d3 d e2 f2 d2 c2 c2 | %112
w: eux? tant glo- * * * ri-|eux? Le Dieu d'ar- mes vic-|to * * * * ri- eux, Le|Dieu d'ar- mes vic- to- ri- eux, vic-|
 BABc d2 B2 A4 z2 d2 | e2 c2 d3 e f2 e2 g4 | d2 d2 _e2 e2 d4 d2 d2 | =B2 B2 c2 d2 _e3 d c8 | %116
w: to * * * * ri- eux, C'est|luy qui est le Roy de gloi-|re, le Roy de gloi- re, C'est|luy qui est le Roy de gloi-|
 =B2 A2"^-" x8 x4 |] x16 |] %118
w: ||
V:2
 z4 B8 A4 | G4 F4 A4 A6 | G2 G8 ^F4 G2 | G2 B6 AG F2 A2 x2 | c2 c2 B2 A2 G2 D2 F2 G2 | %5
w: La ter-|re~au Sei- gneur ap-|* * par- tient,|Tout ce * * * qu'en|sa ron- deur con- tient, Tout ce qu'en|
 A2 B2 A2 A2 A4 z4 | F4 B2 A2 G2 F2 E2 G2 | ^F2 G4 !courtesy!^F2 G2 G2 B4 | %8
w: sa ron- deur con- tient,|Et ceux qui ha- bi- tent en|el- * * le, Et ceux|
 A4 G4"^(  )" F2 E2 D2 G4 | ^FE !courtesy!^F4 G2 D2 D2 D2 x2 | _E2 D2 C2 C2 B,3 C D4 x | %11
w: qui ha- bi- tent en el-|* * * le: Sur mer fon-|de- ment lui don- na, * *|
 z2 G2 G2 G2 A2 G3 G ^F2 x | G4"^(  )" F2 F2 B,3 A, G,4 | A,2 A2 A4 F2 A2 G2 F2 x2 | %14
w: Sur mer fon- de- ment lui don-|na, lui don- na, * *|L'en- ri- chit et l'en- vi- ron-|
 E3 D/C/ D4 B,2 B2 B4 | z2 G4 F2 A4 F2 A2 x2 | F2 D2 G2 F4 E2 F3 D | EF G2 F2 E2 F2 G2 A2 F2 | %18
w: na, * * * L'en- ri- chit|L'en- ri- chit et l'en-|vi- ron- na, L'en- ri- chit *|* * * et l'en- vi- ron- na De|
 E2 DC G2 D2 z8 | z2 G2 F2 ED E2 F4 F2 | _E3 D C4 =B,8 x4 | D8 A8 x2 | F8 G8 | G4 F4 E8 x | %24
w: main- te ri- vie- re|De main- te ri- vie- re tres|bel * * le.|Mais sa|mon- ta-|gne~est un sainct|
 D8 z8 x | D8 F4 G4 | A4 c4 =B4 B4 x | A8 z8 x3 | A8 B4 A4 | G4 F4 E4 D4 x2 | E8 D8 x | z8 F8 | %32
w: lieu,|Qui vien- dra|donc au mont de|Dieu?|Qui est- ce|qui là tien- dra|pla- ce?|L'hom-|
 F4 F4 G8 x2 | F4 E4 D8 x2 | C8 z8 | D8 A4 A4 | F4 A4 G8 | F8 E8 | z8 A8 x2 | G4 F4 E4 D4 | %40
w: me de mains|et cur la-|vé,|En va- ni-|té non es-|le- vé|Et|qui n'a ju- ré|
 F4 G4 E8 |"^-" x16- x14 |] x16 | D2 G2 B4 G2 G2 F2 E2 | D4 G,2 G2 E4 F2 F2 | E2 D2 C4 z2 G4 F2 | %46
w: en fal- la-|ce.||L'hom- me tel Dieu le be- ni-|ra: L'hom- me tel Dieu le|be- ni- ra: Dieu le|
 D2 =B,2 C4 G3 F/E/ D2 C2 | C2 =B,2 C4 D2 A2 F4 | G2 G2 F2 E2 D2 B4 A4 | G4 ^F2 G4 D4 x2 | %50
w: be- ni- ra: Dieu * * * le|be- ni- ra: L'hom- me tel|Dieu le be- ni- ra: Dieu le|be- ni- ra: Dieu|
 E2 F2 G4 B4 A2 A2 | G4 z4 D4 F2 G2 | A4 c4 B2 B2 A4 x2 | F4 G2 A2 B4 z2 B4 | %54
w: son Sau- veur le mu- ni-|ra, Dieu son Sau-|veur le mu- ni- ra,|le mu- ni- ra, De|
 c2 B2 A2 G4 ^F2 G2 F4 | G4 A2 B2 c4 x4 | B4 G2 B2 G2 F2 _E4 | D2 C2 D4 C4 F2 D2 | %58
w: mi- se- ri- cor- de~et cle- men-|ce, et cle- men-|ce, De mi- se- ri- cor-|de~et cle- men- ce De mi-|
 E2 E2 F2 G2 A4 G4 | ^F2 A4 A2"^(  )" =F2 E2 D2 E2 | ^F2 G4 !courtesy!^F2 G2 B2 B2 B2 | %61
w: se- ri- cor- de~et cle- men-|ce, De mi- se- ri- cor- de~et|cle- men- * ce, Tel- le~est la|
 c3 B A3 G F4 D4 | E2 G2 c3 B A3 G A4 | z4 G4 G2 G2 c3 B | A2 G2 ^F4 z8 x2 | z4 D4 A2 A2 F2 A2 x2 | %66
w: ge- ne- ra- ti- on, Tel-|le~est la ge- ne- ra- ti- on,|Tel- le~est la ge- ne-|ra- ti- on,|Cher- chant, cher- chant d'af-|
 G2 F2 E2 G2 F3 E D4 | z4 c4 B2 A2 G4 | F4 B4 G2 G4 ^F2 x2 | G2 B2 c2 G2 A4 G2 B2 x2 | %70
w: fec- ti- on, d'af- fec- ti- on,|O Dieu de Ja-|cob, ta pre- sen- *|ce, O Dieu de Ja- cob, de|
 A2 G2 z2 A2 G2 F2 E4 | D4 F2 G2 E4 D2 ^F2 | G2 D2 A4 F2 F2 A2 D2 x4 | %73
w: Ja- cob, O Dieu de Ja-|cob, ta pre- sen- ce, O|Dieu de Ja- cob, O Dieu de|
 E2 ^F2 G2 B4 G4 !courtesy!^F2 x4 |] G6"^(  )" FE"^-" x8 | z4 D4 F4 F2 F4 | %76
w: Ja- cob, ta pre- sen- *|ce. * *|Haus- sez vos tes-|
 D2 G2 F2 E4 z2 E2 E2 x2 | G2 D2 D2 A4 A4 D4 | B2 AG ^F2 G3 !courtesy!^F/E/ !courtesy!^F2 x4 | %79
w: tes grands por- taux, Haus- sez|vos tes- tes grands por- taux,|grands * * * por- * * *|
 G4 z2 G4 F4 E2 | D2 A2 A2 A2 G4 z4 | z2 A2 A3 G F4 z2 x2- x2 | x2 G4 F2 B2 G2 z4 | z16 | %84
w: taux, Huis e- ter-|nels te- nez- vous hauts,|Si en- tre- ra, le\_\_\_|Roi de gloi- re,||
 z2 A2 A2 A2 B2 G2 GABG | AGFE F2 F2 D8 | z2 B2 B2 B2 G2 A2 G3 F/E/ | DEFD E2 F4 ED E4 | %88
w: Qui- est ce Roy tant glo * * *|* * * * * ri- eux?|Qui- est ce Roy tant glo- * *|* * * * * ri- * * *|
 F4 C4 D4 C4 | B,4 D6 A4 A2 | B4 A4 c3 BAG x2- | x2 GF G2 G2 A3 G/F/ E4 | A2 G2 F2 G2 A4 A2 =B2 | %93
w: eux? tant glo- ri-|eux? C'est le fort|Dieu vic- to * * * *|* * * ri- eux, * * *|Le plus fort qu'en guer- re~on peut|
 c2 G2 z2 d4 c2"^(  )" B2 A2 | G4 G6 G2 ^F4 | G4 z2 D2 G2 E2 F4 | D2 D4 CB, A,4 A,4 | %97
w: croi- re, Le plus fort qu'en|guer- re~on peut croi-|re Haus- sez vos tes-|tes grands * * * por-|
 D4 z2 D2 F2 C2 _E8 | D2 D2 F6 C2 _E4 | D2 G4 ^FE !courtesy!^F2 F2 x4 | G4 z2 G2 F3 G A2 A2 | %101
w: taux, Haus- sez vos tes-|tes Haus- sez vos tes-|tes grands * * * por-|taux, Huis e- ter- nels, te-|
 A2 B2 A2 A2 G4 E2 A4 | A2 B3 A G2 G2 A2 G2 x2 | ^F2 G4 !courtesy!^F2 G4 z2 D2 x | %104
w: nez- vous hauts, te- nez- vous hauts,|Si en- tre- ra le Roy de|gloi * * re, Si|
"^(  )" F3 E D4 z2 D2 D2 G2 x3 | G2 ^FE !courtesy!^F4 G4 z2 G2 | G4 E2 F4 D2 DCB,A, | %107
w: en- tre- ra le Roy de|gloi * * * re, Qui|est ce Roy tant glo * * *|
 G,A,B,C DCDE F2 C2 F4 | F2 F4 E2 G2 C2 C3 B, | A,2 B,C DEFG ABcB A2 A2 | B8 z4 z2 F2 | %111
w: * * * * * * * * * ri- eux?|Qui est ce Roy tant glo- *|* * * * * * * * * * * * ri-|eux? Le|
 B2 B3 B A2 AGAB c2 A2 | G2 G2 F2 G2 C2 F2 EDEF | G2 _E2 D4 z2 F2 A2 F2 | G2 A2 B2 G2 A4 D4 | %115
w: Dieu d'ar- mes vic- to * * * * ri-|eux, Le Dieu d'ar- mes vic- to * * *|* ri- eux, C'est lui qui|est le Roy de gloi- re,|
 G4 G6 G2 ^F4 x4 | G2 D2 _E2 D2 C2 D2 !courtesy!_E4 |]"^-" x8- x8 |] %118
w: le Roy de gloi-|re, qui est le Roy de gloi-|re.|
V:3
 z4 g8 f4 | d4 d4 f2 ed c2 d2 x2 | _e4 d8 d4 | G4 G4 B2 c2 d2 f2 |"^(  )" e2 e2 d4 z2 b2 a2 g2 | %5
w: La ter-|re~au Sei- gneur * * * *|* ap- par-|tient, Tout ce qu'en sa ron-|deur con- tient, Tout ce qu'en|
 f2 f2 f2 ed ^c2 d3 !courtesy!^c/=B/ !courtesy!^c2 | d4 z2 d2 _e2 d2 c2 B2 | A2 G2 A4 G4 z4 | %8
w: sa ron- deur * * * con- * * *|tient, Et ceux qui ha- bi-|tent en el- le:|
 z2 c2 _e2 d4 c2 =B4 x2 | c2 A2 d4 G8 | z4 f4 f2 f2 g2 f3 | f _e2 d4 z8 z2 | %12
w: Et ceux qui ha- bi-|tent en el- le:|Sur mer fon- de- ment|lui don- na,|
 d2 d2 d2 _e2 d3 d c2 x2 | d4 z4 z8 x2 | z4 G2 g2 g4 d2 g2 | f2 _e2 d4 f2 f2 a4 x2 | %16
w: Sur mer fon- de- ment lui don-|na,|L'en- ri- chit et l'en-|vi- ron- na, L'en- ri- chit|
 d2 f2 _e2 d2 c4 z4 | A2 d4 c4 B2 A4 | z4 z2 g2 f2 ed e4 | d4 z4 c4 A2 GF | c2 G3 G _e2 d8 x4 | %21
w: et l'en- vi- ron- na|et l'en- vi- ron- na|De main- te ri- vie-|re De main- te ri-|vie- re tres bel- le.|
 z2 B2 B2 B2 f4 f2 g2 x2 | a4 d2 f4 e2 d4 | c4 d6 d2 c4 x | f4 a3 g a2 f4 b2 x | %25
w: Mais sa mon- ta- gne~est un|sainct lieu, est un sainct|lieu, est un sainct|lieu, Qui vien- dra donc au|
 a2 a2 b2 B3 A B2 G2 B2 | F2 f3 e ^f2 g4 d2 g3 |"^(  )" ffe/d/ e2 e2 d4 z2 d2 f4 | %28
w: mont de Dieu? Qui vien- dra donc au|Dieu? Qui vien- dra donc au mont|* * * * * de Dieu? Qui est-|
 d2 d2 g4 f2 f2 x4 | B2 c2 d4 c4 B4 x2 | z2 c4 B2 A2 G2 A4 x | G8 z8 | z8 z2 d4 Bc x2 | %33
w: ce, Qui est- ce qui|là tien- dra pla- ce?|qui là tien- dra pla-|ce?|L'hom- me de|
 d2 d2 d2 c2 B4 B4 x2 | A2 A2 A2 G2 A2 d2 d2 c2 | f2 f2 f4 z4 z2 f2 | defd f2 f2 e4 d2 G2 | %37
w: mains et cur la- vé, de|mains et cur la- vé, de mains et|cur la- vé, En|va * * * * ni- té non es-|
 B2 d2 z4 g2 f2 e2 d2 | x12- x2 x2 x2 | z4 a6 e2 f2 e2 | d3 cBA G2 z4 G2 A2 | %41
w: le- vé Et qui n'a ju-|ré|Et qui n'a ju-|ré * * * * Et qui|
 B2 c2 d2 A2 B4 A4 x14 |]"^-" x16 | z16 | G2 d2 B4 c2 c2 B2 A2 | G4 g2 g2 f2 e2 d4 | %46
w: n'a ju- ré en fal- la-|||L'hom- me tel Dieu le be- ni-|ra: Dieu le be- ni- ra:|
 G2 g2 e4 c2 c2 B2 A2 | G4 A2 a2 f4 d2 d2 | c2 B2 A4 B2 d2 f4 x2 | d2 B2 c2 d2 G8 | z16 | %51
w: L'hom- me tel Dieu le be- ni-|ra: L'hom- me tel Dieu le|be- ni- ra: L'hom- me tel|Dieu le be- ni- ra:||
 z4 G4 B2 c2 d4 | f4 e2 e2 d8 x2 | z2 d2 c2 c2 B8 x2 | z8 z4 d2 _e2 x2 | d2 c2 B4 A2 G2 A4 | x16- | %57
w: Dieu son Sau- veur|le mu- ni- ra,|le mu- ni- ra,|De mi-|se- ri- cor- de~et cle- men-|ce,|
 x4 x4 z2 A4 B2 | A2 G2 F4 f2 f2 e4 | x16- | x4 x4 z2 g2 g2 g2 | a3 g f3 e d2 B2 B2 B2 | %62
w: De mi-|se- ri- cor- de~et cle- men-|ce,|Tel- le~est la|ge- ne- ra- ti- on, Tel- le~est la|
 c3 B A3 G F2 f2 f2 f2 | g3 f _e3 d c8 | d8 z2 d2 g2 g2 x2 | e2 g2 f2 e2 d8 x2 | %66
w: ge- ne- ra- ti- on, Tel- le~est la|ge- ne- ra- ti- on,|* Cher- chant, cher-|chant d'af- fec- ti- on,|
 z4 z2 G2 d2 d2 B2 d2 | c2 B2 A4 B4 c2 G2 | d4 _e2 e4 c2 d4 x2 | G4 z4 z4 z2 g2 x2 | %70
w: Cher- chant, cher- chant d'af-|fec- ti- on, O Dieu de|Ja- cob, ta pre- sen-|ce, O|
 f2 e2 d4 G4 z2 A2 | f2 d3 cBA G2 A2 d4 | z8 d4 c2 B2 x4 | A4 G4 B2 c2 A4 x4 |]"^-" x8- x8 | %75
w: Dieu de Ja- cob, ta|pre- sen- * * * * * ce,|O Dieu de|Ja- cob, ta pre- sen-|ce.|
 z16 x2 | z4 d4 g4 g2 g4 | e2 g6 fe f2 e2 g4 | g2 fe d4 d4 x4 | d8 z4 z2 g2 | %80
w: |Haus- sez vos tes-|tes grands por * * * taux,|grands * * * por-|taux Huis|
 f2 e2 d4 z2 g2 g2 g2 | f2 d2 f3 e d2 B2 d3 c x2 | B2 G2 B3 A G4 G4 | _e4 d4 c4 =B4 | c2 c2 c4 d8 | %85
w: e- ter- nels te- nez- vous|hauts, Si en- tre- ra, si en- tre-|ra, si en- tre- ra, si|en- tre- ra, le|Roy de gloi- re,|
 z8 z2 f2 f2 f2 | g2 f2 defd ec f4 e2 | f4 z4 z2 B2 B2 B2 | c3 B A2 G2 F8 | z2 d2 G2 g4 fe f4 | %90
w: Qui- est ce|Roy tant glo * * * * * * ri-|eux, Qui- est ce|Roy tant glo ri- eux?|C'est le fort * * *|
 f2 d2 f2 f2 g4 z4 | z8 z4 a2 g2 | f2 e2 d4 d2 e2 f4 | g4 g2 d2 e2 f2 g4 | d4 e4 a8 | d8 z8 | %96
w: Dieu vic- to- ri- eux,|Le plus|fort qu'en guer- re~on peut croi-|re, Le plus fort qu'en guer-|re~on peut croi-|re|
 G8 d8 | B8 c8 x4 | c4 B4 A8 | G8 z8 | G8 B4 c4 | d4 f4 e4 e4 x2 | d8 z8 | d8 _e4 d4 x | %104
w: Haus- sez|vos tes-|tes grands por-|taux,|Huis e- ter-|nels, te- nez- vous|hauts,|Si en- tre-|
 c4 B4 A4 G4 x3 | A8 G8 | z8 B8 | B4 B4 c8 | B4 A4 G8 | F8 z8 | G8 d4 d4 | B4 d4 c8 | B8 A8 | %113
w: ra le Roy de|gloi- re,|Qui|est ce Roy|tant glo- ri-|eux?|Le Dieu d'ar-|mes vic- to-|ri- eux,|
 z8 d8 | c4 B4 A4 G4 | B4 c4 A8 x4 |"^-" x16- |] x8 x8 |] %118
w: C'est|luy qui est le|Roy de gloi-|re.||
V:4
 z8 z4 D4 | G,4 B,2 B,2 F,2 G,2 A,2 B,2 x2 | C4 G,2 G,2 D,4 z2 D2 | B,2 C2 D2 _E2 D4 D4 | %4
w: La|ter- re~au Sei- gneur * * *|* ap- par- tient, Tout|ce qu'en sa ron- deur con-|
 C4 G,4 G,2 G,2 F,2 E,2 | D,4 D,4 A,4 A,4 | B,2 A,2 G,2 F,2 _E,2 B,,2 C,4 | D,8 z2 C,2 D,2 E,2 | %8
w: tient, Tout ce qu'en sa ron-|deur con- tient, Et|ceux qui ha- bi- tent en el-|le: Et ceux qui|
 F,4 G,2 G,G, D,4 G,4 x2 | z8 B,4 B,2 B,2 | C2 B,3 B, A,2 D4 B,4 x | G,4 G,2 B,2 F,2 G,2 A,4 x | %12
w: ha- bi- tent en el- le:|Sur mer fon-|de- ment lui don- na, Sur|mer fon- de- ment lui don-|
 G,4 D,2 D,2 G,4 _E,2 E,2 | D,4 D,2 D2 D4 B,2 D4 | C4 B,2 G,4 G,2 G,2 D,2 | %15
w: na, fon- de- ment lui don-|na, L'en- ri- chit et l'en-|vi- ron- na et l'en- vi-|
 _E,2 B,,4 z2 F,4 F,2 B,4 | G,2 B,2 F,2 A,4 D2 x4 | C2 B,2 A,4 z2 G,2 F,2 E,D, | %18
w: ron- na, L'en- ri- chit,|L'en- ri- chit et l'en-|vi- ron- na De main- te ri-|
 A,4 G,2 G,2 D2 A,2 z2 C2 | B,2 A,G, A,4 A,2 F,2 C4 | C,3 D, _E,3 F, x12- | %21
w: vie- re tres bel- le. De|main- te ri- vie- re tres bel-|le, * * * *|
 x2 x2 z2 D,2 D,2 D,2 D4 x2 | B,2 A,2 G,4 G,4 x4 | z4 F,2 G,2 A,8 x | D,4 z2 D3 C D2 B,2 G,2 x | %25
w: Mais sa mon- ta-|gne~est un sainct lieu,|est un sainct|lieu, Qui vien- dra donc au|
 D2 D,2 G,4 z2 D3 C D2 | C2 F,2 A,2 A,2 G,4 G,4 x | A,2 D,2 A,4 z2 ^F,2 G,4 x3 | D,8 z2 G,2 x4- | %29
w: mont de Dieu? Qui vien- dra|donc au mont de Dieu? au|mont de Dieu? Qui est-|ce Qui est-|
 x4 D,2 D,2 E,2 F,2 G,4 x2 | C,8 D,8 x | z2 D4 B,C D2 D2 D2 C2 | B,2 B,2 B,2 A,2 G,8 x2 | %33
w: ce qui là tien- dra|pla- ce?|L'hom- me de mains et cur la-|vé, et cur la- vé,|
 z8 z2 G,4 D,E, x2 | F,2 F,2 F,2 E,2 D,E,F,G, A,4 | z4 z2 B,2 A,B,CA, D2 A,2 | %36
w: L'hom- me de|mains et cur la- vé, * * * *|En va * * * * ni-|
 B,2 B,2 F,2 A,2 C2 C2 G,2 B,2 | D2 D2 D,2 D2 C4 C2 B,2 | A,2 G,2 F,4 F,2 G,2 A,2 B,2 x2 | %39
w: té non es- le- vé non es- le-|vé, non es- le- vé, Et qui|n'a ju- ré, Et qui n'a ju-|
 C2 C,2 F,4 A,4 D,4 | z8 C,2 D,2 E,2 F,2 | G,4 D,4 B,,4 D,4 x14 |]"^-" x16 | z16 | z16 | z16 | %46
w: ré en fal- la- ce,|Et qui n'a ju-|ré en fal- la-|||||
 z16 | z16 | z16 x2 | z16 | z16 | z16 | z16 x2 | z18 | z18 | z12 x4 | z16 | z16 | z16 | z16 | z16 | %61
w: |||||||||||||||
 z16 | z16 | z16 | z16 x2 | z18 | z16 | z14 x2 | z16 x2 | z18 | z16 | z14 x2 | z16 x4 | z20 |] %74
w: |||||||||||||
 z12 x4 | G,8 D8 x2 | B,8 C8 x2 | C4 B,4 A,8 x2 | G,8 z8 | G,8 B,4 C4 | D4 F4 E4 E4 | D8 z8 x2 | %82
w: |Haus- sez|vos tes-|tes grands por-|taux,|Huis e- ter-|nels te- nez- vous|hauts,|
 D8 _E4 D4 | C4 B,4 A,4 G,4 | A,8 G,8 | z8 B,8 | B,4 B,4 C8 | B,4 A,4 G,8 | F,8 z8 | G,8 D4 D4 | %90
w: Si en- tre-|ra, le Roy de|gloi- re,|Qui-|est ce Roy|tant glo- ri-|eux?|C'est le fort|
 B,4 D4 C8 | B,8 A,8 | z8 D8 | C4 B,4 A,4 G,4 | B,4 C4 A,8 | G,8 z2 G,2 D2 A,2 | %96
w: Dieu vic- to-|ri- eux,|Le|plus fort qu'en guer-|re~on peut croi-|re, Haus- sez vos|
 B,4 B,2 G,4 ^F,E, F,2 F,2 | G,8 F,4 C2 C,2 x4 | _E,2 F,2 G,2 G,2 D,4 z4 | z8 z4 D4 | %100
w: tes- tes grands * * * por-|taux, Haus- sez vos|tes- tes grands por- taux,|Huis|
 B,3 C D4 z2 D2 A,3 G, | ^F,2 G,2 A,2 G,"^(  )"=F, G,2 E,2 A,4 x2 | z4 G,4 C3 B, F,2 G,2 | %103
w: e- ter- nels, Huis e- ter-|nels, te- nez- * * * vous hauts|Si en- tre- ra le|
 D,4 D,2 D3 C/B,/ C3 B,/A,/ B,3 | %104
w: Roy de gloi- * * * * * *|
 A,/G,/ A,3 G,/^F,/ G,3 !courtesy!^F,/E,/ !courtesy!^F,2 G,2 _E,2 D,4 | D,4 z2 D2 D4 x4 | %106
w: * * * * * * * * * re, de gloi-|re, Qui est|
 =B,2 C4 A,2 DC"^(  )"_B,A, G,2 G,2 | D2 G,2 G,4 F,2 F,4 A,2 | B,2 D2 C4 C,4 C,2 C,2 | %109
w: ce Roy tant glo- * * * * ri-|eux? Qui est ce Roy tant|glo- ri- eux? Qui est ce|
 D,2 D,2 B,,C,D,E, F,G,A,B, C2 D2 | D3 _E DCB,A, G,4 z4 | z4 z2 D,2 A,2 A,3 A, F,2 | %112
w: Roy tant glo * * * * * * * * ri-|eux? * * * * * *|Le Dieu d'ar- mes vic-|
 G,F,G,A, B,2 G,2 F,4 z2 A,2 | G,F,G,A, B,2 G,2 D,4 z4 | z8 z2 C2 B,2 A,2 | %115
w: to * * * * ri- eux, vic-|to * * * * ri- eux,|C'est luy qui|
 G,2 F,2 _E,2 C,2 D,4 D,4 x4 | z2 G,2 C,2 =B,,2 C,2 C,2 C,4 |]"^-" x8- x8 |] %118
w: est le Roy de gloi- re,|qui est le Roy de gloi-|re.|

